/* XPM */
static const char * const neogff_icon_xpm[] = {
/* columns rows colors chars-per-pixel */
"32 32 209 2 ",
"   c None",
".  c black",
"X  c #010100",
"o  c #020100",
"O  c #030200",
"+  c #030300",
"@  c #040300",
"#  c #050500",
"$  c #060500",
"%  c #090800",
"&  c #0B0A00",
"*  c #0C0A00",
"=  c #0E0D00",
"-  c #191600",
";  c #1A1700",
":  c #1D1A00",
">  c #1F1C00",
",  c #201D00",
"<  c #211E00",
"1  c #231F00",
"2  c #242100",
"3  c #262300",
"4  c #272300",
"5  c #282400",
"6  c #292500",
"7  c #2A2600",
"8  c #2B2700",
"9  c #2C2700",
"0  c #2D2800",
"q  c #312C00",
"w  c #322D00",
"e  c #332E00",
"r  c #353000",
"t  c #393300",
"y  c #393400",
"u  c #3C3600",
"i  c #3D3700",
"p  c #413B00",
"a  c #423C00",
"s  c #443D00",
"d  c #453F00",
"f  c #484000",
"g  c #484100",
"h  c #4D4400",
"j  c #4D4500",
"k  c #504800",
"l  c #514900",
"z  c #544B00",
"x  c #544C00",
"c  c #554D00",
"v  c #564D00",
"b  c #574D00",
"n  c #564E00",
"m  c #584F00",
"M  c #595000",
"N  c #5B5200",
"B  c #5C5200",
"V  c #5D5400",
"C  c #5E5500",
"Z  c #615700",
"A  c #665C00",
"S  c #6A5F00",
"D  c #6B6000",
"F  c #6C6100",
"G  c #6D6200",
"H  c #6E6300",
"J  c #6F6401",
"K  c #706400",
"L  c #716600",
"P  c #726600",
"I  c #726700",
"U  c #736700",
"Y  c #736701",
"T  c #736800",
"R  c #746800",
"E  c #766A00",
"W  c #786C00",
"Q  c #796C00",
"!  c #7A6E00",
"~  c #7B6E00",
"^  c #7C6F00",
"/  c #7C6F01",
"(  c #7D7000",
")  c #7E7200",
"_  c #908201",
"`  c #928301",
"'  c #938501",
"]  c #948501",
"[  c #948601",
"{  c #968701",
"}  c #998901",
"|  c #998A01",
" . c #9A8A00",
".. c #9A8B01",
"X. c #9C8D01",
"o. c #9F8F00",
"O. c #A19101",
"+. c #A99801",
"@. c #AB9A01",
"#. c #A99D01",
"$. c #B09E01",
"%. c #B29F01",
"&. c #B4A201",
"*. c #B9A601",
"=. c #BAA701",
"-. c #BAA801",
";. c #BBA901",
":. c #BDAA01",
">. c #BEAB01",
",. c #BFAC01",
"<. c #C0AD01",
"1. c #C3AF01",
"2. c #C1B101",
"3. c #C3B001",
"4. c #C4B101",
"5. c #C5B101",
"6. c #C6B201",
"7. c #C6B301",
"8. c #C7B301",
"9. c #C8B401",
"0. c #CAB601",
"q. c #CDB901",
"w. c #D1BC01",
"e. c #D3BE01",
"r. c #D5BF01",
"t. c #D6C001",
"y. c #D7C101",
"u. c #D8C201",
"i. c #DCC601",
"p. c #E3CD01",
"a. c #E5CF01",
"s. c #E7CF01",
"d. c #E6D001",
"f. c #E8D101",
"g. c #EAD301",
"h. c #EBD401",
"j. c #ECD401",
"k. c #ECD501",
"l. c #EDD501",
"z. c #EDD601",
"x. c #EED601",
"c. c #EED701",
"v. c #EFD701",
"b. c #EFD801",
"n. c #EFD901",
"m. c #F0D801",
"M. c #F1D801",
"N. c #F0D901",
"B. c #F1D901",
"V. c #F1DA01",
"C. c #F2DA01",
"Z. c #F3DB01",
"A. c #F4DB01",
"S. c #F4DC01",
"D. c #F5DC01",
"F. c #F5DD01",
"G. c #F6DD01",
"H. c #F6DE01",
"J. c #F7DE01",
"K. c #F7DF01",
"L. c #F8DF01",
"P. c #F9E001",
"I. c #F8E101",
"U. c #F9E101",
"Y. c #FAE101",
"T. c #FBE101",
"R. c #FBE201",
"E. c #FAE301",
"W. c #FBE301",
"Q. c #FCE301",
"!. c #FDE301",
"~. c #F9E701",
"^. c #FBE601",
"/. c #FBE701",
"(. c #FCE401",
"). c #FDE401",
"_. c #FCE501",
"`. c #FDE501",
"'. c #FEE501",
"]. c #FCE601",
"[. c #FDE601",
"{. c #FCE701",
"}. c #FDE701",
"|. c #FEE601",
" X c #FEE701",
".X c #FFE701",
"XX c #F8E801",
"oX c #FBE801",
"OX c #FCE801",
"+X c #FDE801",
"@X c #FDE901",
"#X c #FEE801",
"$X c #FFE801",
"%X c #FBEC01",
"&X c #F9EE01",
"*X c #FDEC01",
"=X c #FCED01",
"-X c #FFEC01",
";X c #FCEE01",
":X c #FDEE01",
">X c #FDEF01",
",X c #F6F301",
"<X c #FCF201",
"1X c #FDF301",
"2X c #F9F701",
"3X c #FDF401",
"4X c #FEF501",
"5X c #F9F901",
"6X c #FBF801",
/* pixels */
"                                                                ",
"                                                                ",
"                                                                ",
"                                                                ",
"                                                                ",
"                                                                ",
"          . . .                                                 ",
"      . > V H x : .     , 5 4 4 4 4 5 * : 5 4 4 4 4 4 4 4 4 5 = ",
"    . I n.#X).).n.) $ . 7.R.v.M.M.v.).g %.).v.M.M.M.M.M.M.v.R.x ",
"  . ^ %XM.v.M.v.M.:Xa . 0.).M.n.v.v.Q.g %.).v.M.M.M.v.v.v.v.L.x ",
"  s /.v.D.R.a.D.:X;.% . 7.R.M.).).).3Xj :.3XL.M.M.Q.).).).).:XB ",
". *.R.D.y.g - u 2.u     7.).d.} [ ' o.0 J } ,.D.D.&._ [ [ ' } r ",
"5 v.A.M.w       . .   . 7.).y.. . . . . . . S #X).g . . . . . . ",
"N R.).O..             . 7./.y.$             E ).R.j             ",
"E R.).A               . 7.).i.w 5 9 , .     I ).R.H 4 5 5 %     ",
") Q.Q.l         . . . . 7.Q.M.#X/.,Xe.      I #Xv.).XXXX%Xt     ",
"I R.).Z         I #.^ . 7.).p.W T W V .     I ).D.o.I E W -     ",
"m L.).} .       ;.6X0.. 7.).y.. . . .       I ).).s . . . .     ",
"9 v.D.v.y .   . @.%X*.. 7.).u.=             I /.R.z             ",
". 7.R.D.f.W p p 2.:X:.. 7.).u.%             I /.R.l             ",
"  V :Xf.D.).R.R.M.Q.1.. 7.).u.%             I /.R.l             ",
"  . @.:XM.h.v.v.v.R.:.. 1.R.r.%             I R.D.l             ",
"    % _ M.).#X#X).1Xq.. e.6Xa.%             W 2X1Xx             ",
"      . , x D H H I x . N T Z @             w T I 4             ",
"          . . . . . . . . . .               . . . .             ",
"                                                                ",
"                                                                ",
"                                                                ",
"                                                                ",
"                                                                ",
"                                                                ",
"                                                                "
};
